openmetadata-ui/src/main/resources/ui/src/assets/svg/icon-test-suite.svg

<svg width="16" height="16" viewBox="0 0 16 16" fill="currentColor" xmlns="http://www.w3.org/2000/svg">
<path d="M13.9221 3.6123L10.9766 0.580214C10.9299 0.532086 10.8675 0.5 10.7896 0.5H3.74545C2.77922 0.5 2 1.30214 2 2.29679V13.7032C2 14.6979 2.77922 15.5 3.74545 15.5H12.2545C13.2208 15.5 14 14.6979 14 13.7032V3.80481C14 3.7246 13.9688 3.66043 13.9221 3.6123V3.6123ZM11.0545 1.46257C11.7558 2.18449 12.3636 2.81016 13.0649 3.53209H11.6C11.2883 3.53209 11.0545 3.2754 11.0545 2.97059V1.46257ZM12.2545 14.9385H3.74545C3.09091 14.9385 2.54545 14.393 2.54545 13.7032V2.28075C2.54545 1.60695 3.07532 1.04545 3.74545 1.04545H10.5091V2.95455C10.5091 3.58021 11.0078 4.07754 11.6 4.07754H13.4545V13.7032C13.4545 14.393 12.9091 14.9385 12.2545 14.9385Z" fill="currentColor" stroke="currentColor" stroke-width="0.35"/>
<path d="M11.0012 5.15234H7.93723C7.81612 5.15234 7.71924 5.26345 7.71924 5.40234C7.71924 5.54123 7.81612 5.65234 7.93723 5.65234H11.0012C11.1224 5.65234 11.2192 5.54123 11.2192 5.40234C11.2192 5.26345 11.1224 5.15234 11.0012 5.15234Z" fill="currentColor" stroke="currentColor" stroke-width="0.4"/>
<path d="M5.2107 3.08291H9.15355C9.3094 3.08291 9.43407 2.95457 9.43407 2.79414C9.43407 2.63371 9.3094 2.50537 9.15355 2.50537H5.2107C5.05485 2.50537 4.93018 2.63371 4.93018 2.79414C4.93018 2.95457 5.05485 3.08291 5.2107 3.08291V3.08291Z" fill="currentColor" stroke="currentColor" stroke-width="0.25"/>
<path d="M5.93531 4.66335L5.0341 5.59106L4.55424 5.09709C4.47231 5.01275 4.34357 5.01275 4.26164 5.09709C4.17971 5.18142 4.17971 5.31395 4.26164 5.39829L4.88195 6.03684C4.96388 6.12118 5.09262 6.12118 5.17455 6.03684L6.2162 4.96456C6.29813 4.88022 6.29813 4.74769 6.2162 4.66335C6.13427 4.57901 6.00553 4.57901 5.93531 4.66335V4.66335Z" fill="currentColor" stroke="currentColor" stroke-width="0.25"/>
<path d="M11.0012 7.57471H7.93723C7.81612 7.57471 7.71924 7.68582 7.71924 7.82471C7.71924 7.9636 7.81612 8.07471 7.93723 8.07471H11.0012C11.1224 8.07471 11.2192 7.9636 11.2192 7.82471C11.2192 7.68582 11.1224 7.57471 11.0012 7.57471Z" fill="currentColor" stroke="currentColor" stroke-width="0.4"/>
<path d="M5.94582 7.05455L5.03916 7.98788L4.55639 7.49091C4.47396 7.40606 4.34444 7.40606 4.26201 7.49091C4.17959 7.57576 4.17959 7.70909 4.26201 7.79394L4.88608 8.43636C4.96851 8.52121 5.09803 8.52121 5.18046 8.43636L6.22842 7.35758C6.31084 7.27273 6.31084 7.13939 6.22842 7.05455C6.146 6.98182 6.01647 6.98182 5.94582 7.05455V7.05455Z" fill="currentColor" stroke="currentColor" stroke-width="0.25"/>
<path d="M11.0012 9.99731H7.93723C7.81612 9.99731 7.71924 10.1084 7.71924 10.2473C7.71924 10.3862 7.81612 10.4973 7.93723 10.4973H11.0012C11.1224 10.4973 11.2192 10.3862 11.2192 10.2473C11.2192 10.1084 11.1224 9.99731 11.0012 9.99731Z" fill="currentColor" stroke="currentColor" stroke-width="0.4"/>
<path d="M5.93531 9.56325L5.0341 10.491L4.55424 9.99699C4.47231 9.91265 4.34357 9.91265 4.26164 9.99699C4.17971 10.0813 4.17971 10.2139 4.26164 10.2982L4.88195 10.9367C4.96388 11.0211 5.09262 11.0211 5.17455 10.9367L6.2162 9.86446C6.29813 9.78012 6.29813 9.64759 6.2162 9.56325C6.14598 9.47892 6.01723 9.47892 5.93531 9.56325V9.56325Z" fill="currentColor" stroke="currentColor" stroke-width="0.25"/>
<path d="M11.0012 12.4199H7.93723C7.81612 12.4199 7.71924 12.531 7.71924 12.6699C7.71924 12.8088 7.81612 12.9199 7.93723 12.9199H11.0012C11.1224 12.9199 11.2192 12.8088 11.2192 12.6699C11.2192 12.531 11.1224 12.4199 11.0012 12.4199Z" fill="currentColor" stroke="currentColor" stroke-width="0.4"/>
<path d="M5.62387 12.0072L4.4925 13.1386C4.41443 13.2167 4.41443 13.3434 4.4925 13.4215C4.57056 13.4995 4.69727 13.4995 4.77534 13.4215L5.90671 12.2901C5.98477 12.212 5.98477 12.0853 5.90671 12.0072C5.82864 11.9292 5.70193 11.9292 5.62387 12.0072Z" fill="currentColor" stroke="currentColor" stroke-width="0.25"/>
<path d="M5.90658 13.1385L4.77521 12.0071C4.69715 11.9291 4.57043 11.9291 4.49237 12.0071C4.4143 12.0852 4.4143 12.2119 4.49237 12.29L5.62374 13.4214C5.7018 13.4994 5.82852 13.4994 5.90658 13.4214C5.98465 13.3433 5.98465 13.2166 5.90658 13.1385Z" fill="currentColor" stroke="currentColor" stroke-width="0.25"/>
</svg>

<svg xmlns="http://www.w3.org/2000/svg" width="16" height="16" fill="currentColor"><path stroke="currentColor" stroke-width=".35" d="M13.922 3.612 10.977.58A.254.254 0 0 0 10.79.5H3.745C2.78.5 2 1.302 2 2.297v11.406c0 .995.78 1.797 1.745 1.797h8.51c.966 0 1.745-.802 1.745-1.797V3.805a.27.27 0 0 0-.078-.193Zm-2.867-2.15 2.01 2.07H11.6a.55.55 0 0 1-.545-.561V1.463Zm1.2 13.476h-8.51c-.654 0-1.2-.545-1.2-1.235V2.281c0-.674.53-1.236 1.2-1.236h6.764v1.91c0 .625.499 1.123 1.091 1.123h1.854v9.625c0 .69-.545 1.236-1.2 1.236Z"/><path stroke="currentColor" stroke-width=".4" d="M11.001 5.152H7.937c-.12 0-.218.111-.218.25 0 .14.097.25.218.25h3.064c.121 0 .218-.11.218-.25 0-.139-.097-.25-.218-.25Z"/><path stroke="currentColor" stroke-width=".25" d="M5.21 3.083h3.944c.155 0 .28-.128.28-.289a.284.284 0 0 0-.28-.289H5.21a.284.284 0 0 0-.28.29c0 .16.124.288.28.288ZM5.935 4.663l-.9.928-.48-.494a.2.2 0 0 0-.293 0 .215.215 0 0 0 0 .301l.62.639a.2.2 0 0 0 .293 0l1.041-1.072a.215.215 0 0 0 0-.302c-.082-.084-.21-.084-.28 0Z"/><path stroke="currentColor" stroke-width=".4" d="M11.001 7.575H7.937c-.12 0-.218.11-.218.25 0 .139.097.25.218.25h3.064c.121 0 .218-.111.218-.25 0-.14-.097-.25-.218-.25Z"/><path stroke="currentColor" stroke-width=".25" d="m5.946 7.055-.907.933-.483-.497a.202.202 0 0 0-.294 0 .217.217 0 0 0 0 .303l.624.642a.202.202 0 0 0 .294 0l1.048-1.078a.217.217 0 0 0 0-.303c-.082-.073-.212-.073-.282 0Z"/><path stroke="currentColor" stroke-width=".4" d="M11.001 9.997H7.937c-.12 0-.218.111-.218.25 0 .14.097.25.218.25h3.064c.121 0 .218-.11.218-.25 0-.139-.097-.25-.218-.25Z"/><path stroke="currentColor" stroke-width=".25" d="m5.935 9.563-.9.928-.48-.494a.2.2 0 0 0-.293 0 .215.215 0 0 0 0 .301l.62.639a.2.2 0 0 0 .293 0l1.041-1.073a.215.215 0 0 0 0-.3c-.07-.085-.199-.085-.28 0Z"/><path stroke="currentColor" stroke-width=".4" d="M11.001 12.42H7.937c-.12 0-.218.111-.218.25s.097.25.218.25h3.064c.121 0 .218-.111.218-.25s-.097-.25-.218-.25Z"/><path stroke="currentColor" stroke-width=".25" d="M5.624 12.007 4.493 13.14a.2.2 0 0 0 .282.283l1.132-1.132a.2.2 0 0 0-.283-.283Z"/><path stroke="currentColor" stroke-width=".25" d="m5.907 13.139-1.132-1.132a.2.2 0 0 0-.283.283l1.132 1.131a.2.2 0 0 0 .283-.282Z"/></svg>
